X: 6774
T: Chapel Bell, The
R: jig
M: 6/8
K: Edorian
d2 c|:BEE EFA|BAB d2 f|edB BAF|d2 e dBA|
BEE EFA|Bee def|edB BAF|1 AFE Edc:|2 AFD EFA||
Bee efe|def f2 e|dBB BAF|d2 e dBA|
BeB efe|def f2 e|dBB BAF|AFE EFA|
B2 e efe|def f2 e|dBB BAF|d2 e dBA|
Bee efe|def afe|dBB BAF|AFE Edc||

